X:1
T:Der Engel bringt
T:Joachim a Burck
T:Source : Breitkopf & Härtel---Leipzig---R.Eitner---1898. First print : 20 Deutsche Liedlein zu 4 Stimmen---Erfurt---G.Baumann---1575. Editor : André Vierendeels (08/11/17).
T:Der Engel bringt
T:©
T:©
T:©
T:©
C:Joachim a Burck
Z:©
%%score [ 1 2 [ 3 4 ] ]
L:1/8
Q:1/4=95
M:4/4
K:F
V:1 treble nm="Soprano 1" snm="S 1"
V:2 treble nm="Soprano 2" snm="S 2"
V:3 treble-8 nm="Tenor 1" snm="T 1"
V:4 treble-8 nm="Tenor 2" snm="T 2"
V:1
 F4 c4 | c2 c2 c2 d2- | d2 d2 c4 | z4 c4 | f4 d2 B2 | c4 A2 A2 | G8 | z4 A4 | c4 c2 c2 | d2 d2 B4 | %10
w: Der En-|gel bringt wah- ren|_ Be- richt,|der|En- gel bringt|wah- ren Be-|richt,|lass|fah- ren all|Men- schen Ge-|
w: Wen die|Klar- heit des Herrn|_ er- schreckt,|wen|die Klar- heit|des Herrn er-|schreckt,|wem|das Ge- setz|die Sünd ent-|
 A4 z2 c2 | =B4 c2 c2- | c2 d4 c2- | cB/A/ B2 c2 c2 | c4 d2 c2- | c2 c2 =B4 | c8- | c8 | z8 | %19
w: ticht; in|die- sen Wei-|* nachts- ta-|* * * * gen, in|die- sen Wei-|* nachts- ta-|gen,|||
w: deckt, der|lass' sich wie-|* der trö-|* * * * sten, der|lass' sich wie-|* der trö-|sten.|||
 z4 z2 c2- | c2 c2 c4 | A2 d4 c2- | c2 B2 A2 A2- | AGAB c2 c2 | c4 A2 A2 | B3 c d3 e | f2 f4 e2- | %27
w: ler-|* net von|der eng- li-|schen Schar, frö- *|* * * * * lig|sin- gen zum|new- * en _|Jahr, frö- lich|
w: Sieh'|_ was uns|der En- gel|_ bringt, wie er-|* * * * * vor|gros- er Freu-|den _ _ _|singt, wie er|
 e2 d4 ^c2 |"^-natural" d4 c2 B2 | A8 | z2 f2 e4 | c4 d4 | d2 c3 B/A/ =B2 | c8 ||[M:3/2] f6 e2 d4 | %35
w: _ sin- gen|zum new- en|Jahr|und ihr|von Her-|tzen sa- * * *|gen:|Ehr' sey Gott|
w: _ vor gros-|ser Freu- den|singt,|der al-|les Volck|ge- nies- * * *|se.|Ehr' sey Gott|
 ^c2 d2 e4 f2 c2 | c2 d2 c6 c2 | =B4 c2 A2 A2 A2 | B6 B2 c4 ||[M:4/4] c4 z2 A2 | A2 GA B2 A2 | %41
w: in der Hö- he, auf|Er- den Fried und|Ru- he, der Mensch an|Chri- sti Na-|men, hab|wol- * * * ge-|
w: in der Hö- he, auf|Er- den Fried und|Ru- he der Mensch an|Chri- sti Na-|men, hab|wol- * * * ge-|
 G4 F2 F2- | F2 ED E4 | F8 |] %44
w: fal- len, A-||men.|
w: fal- len, A-||men.|
V:2
 z4 z2 C2 | F6 F2 | G4 A4 | G2 E2 F2 A2 | A2 A2 BAGF | E2 F4 F2- | F2 ED E2 E2 | F8 | z2 G2 A4 | %9
w: Der|En- gel|bringt wah-|ren Be- richt, der|En- gel bringt _ _ _|_ wah- ren|_ _ _ _ Be-|richt,|lass fah-|
w: Uns|ist der|Hei- land|heut ge- born, uns|ist der Hei- * * *|* land heut|_ _ _ _ ge-|born,|die wie|
 F4 G2 F2- | F2 F2 E4 | G4 z2 A2 | A4 G4 | F2 D2 G4 | G2 G2 G2 A2 | A2 A2 G4 | E8 | z2 G4 G2 | %18
w: ren all Men-|* schen ge-|ticht; in|die- sen|Wzi- nachts- ta-|gen, in die- sen|Wei- nachts- ta-|gen|ler- net|
w: sonst wärn all|_ ver- lo-|ren, hat-|ten müsst|e- wig ster-|ben, hat- ten müsst|e- wig ster-|ben.|Der Hei-|
 A2 A2 B2 A2 | G4 A2 A2- | A2 A2 A4 | c2 B4 A2- | A2 G2 E4 | FEFG A2 F2 | C2 F4 F2 | F2 D2 GABG | %26
w: von der eng- li-|schen Schar, ler-|* net von|der eng- li-|* schen Schar,|frö- * * * * lich|sin- gen zum|ne- wen Jahr, _ _ _|
w: land ist Chri- stus|der Herr, der|_ Hei- land|ist Chri- stus|_ der Herr|in _ _ _ _ Da-|vids Stadt kom-|men auf Erd,¨¨¨¨¨¨¨¨¨¨ _ _ _|
 A4 z2 A2- | A2 A2 A4 | F4 E2 F2- | F2 E2 F4 | z2 C4 E2 | G2 A4 A2 | BAGF G2 G2- | GFED CD E2 || %34
w: _ frö-|* lich sin-|gen zum new-|* en Jahr|und ihr|von Her- tzen|sa _ _ _ _ ge:|_ _ _ _ _ _ _|
w: _ in|_ Da- vids|Stadt kom- men|_ auf Erd,|dass wir|nun se- lig|wer- * * * * de.|_ _ _ _ _ _ _|
[M:3/2] c6 c2 A4 | A2 B2 c4 c2 A2 | A2 B2 G6 A2 | G4 G2 F2 F2 E2 | F6 G2 A4 ||[M:4/4] A4 z2 F2 | %40
w: Ehr' sey Gott|in der Hö- he, auf|Er- den Fried und|Ru- he, der Mensch an|Chri- sti Na-|men, hab|
w: Ehr' seu Gott|in der Hö- he, auf|Er- den Frird und|Ru- he, der Mensch an|Chri- sti Na-|men, hab|
 F6 F2 | _E4 D2 C2 | C8- | C8 |] %44
w: wol- ge-|fal- len, A-|men.|_|
w: wol- ge-|fal- len, A-|men.|_|
V:3
 z8 | z8 | z4 F4 | c4 c2 c2 | c2 d4 d2 | c8 | z8 | z4 z2 d2 | e4 f2 f2 | d4 d2 d2 | c6 c2 | d4 e4 | %12
w: ||Der|En- gel bringt|wah- ren Be-|richt,||lass|fah- ren all|Men- schen ge-|ticht; in|die- sen|
 f4 e4 | d4 c2 e2 | e4 d2 e2- | e2 f2 d4 | c8 | z2 e4 e2 | e2 f4 e2- | e2 d2 e4 | f4 z2 f2- | %21
w: Wei- nachts-|ta- gen, in|die- sen Wei-|* nachts- ta-|gen|ler- net|von der eng-|* li- scher|Schar, ler-|
 f2 f2 f2 f2 | f2 d4 ^c2 | d4 z2 A2- | AGAB c2 c2 | d4 B2 B2 | c2 d2 c4 | z2 f4 e2 | d2 B2 c2 d2- | %29
w: * net von der|eng- li- schen|Schar, frö-|* * * * * lich|sin- gen zum|new- en Jahr,|frö- lich|sin- gen zum new-|
 d2 ^c2 d4 | z2 a2 g4 | e4 f4- | f2 e2 d4 | cdef g4 ||[M:3/2] a6 g2 f4 | e2 f2 g4 a2 f2 | %36
w: * en Jahr|und ihr|von Her-|* tzen sa-|gen: _ _ _ _|Ehr' sey Gott|in der Hö- he, auf|
 f2 f2 e6 f2 | d4 c2 c2 c2 c2 | d6 d2 e4 ||[M:4/4] f4 z2 f2 | c2 c2 d3 c | B2 c2 A4- | A2 GF G4 | %43
w: Er- den Fried und|Ru- he, der Mensch an|Chri- sti Na-|men, hab|wol- ge- fal- *|* len, A-||
 F8 |] %44
w: men.|
V:4
 z8 | z8 | z8 | C4 F4 | F2 F2 G4 | A2 A2 F2 F2 | c4 c2 c2 | d2 d4 d2 | c4 z2 F2 | B4 G2 B2 | %10
w: |||Der En-|gel bringt wah-|re, Be- richt, der|En- gel bringt|wah- ren Be-|richt, lass|fah- ren all|
 F3 G A4 | G2 G2 c2 A2 | F2 D2 E4 | F2 G2 C2 c2 | c4 B2 A2- | A2 F2 G4 | C4 z2 c2- | c2 c2 c4 | %18
w: Men- * *|schen ge- ticht; in|die- sen Wei-|nachts- ta- gen, in|die- sen Wei-|* nachts- ta-|gen ler-|* net von|
 A2 d4 c2- | c2 B2 A4 | z2 F4 F2 | F2 B,2 B2 F2- | F2 G2 A4 | z4 z2 F2- | FEFG A2 F2 | B4 G2 G2 | %26
w: der eng- li-|* schen Schar,|ler- net|von der eng- li-|* schen Schar,|frö-|* * * * * lich|sin- gen zum|
 FEDE FGAB | c2 d2 A4 | z8 | z8 | z2 F2 c4- | c2 A2 d3 c | B2 c2 G4 | c8 ||[M:3/2] F6 c2 d4 | %35
w: new- * * * * * * *|* en Jahr|||und ihr|_ von Her- *|* tzen sa-|gen:|Ehr' sey Gott|
 A2 d2 c4 F2 F2 | F2 B,2 C6 F2 | G4 C2 F2 F2 F2 | B6 G2 c4 ||[M:4/4] F4 z2 F2 | F4 D4 | _E4 F4 | %42
w: in der Hö- he auf|Er- den Fried und|Ru- he, der Mensch an|Chri- sti Na-|men, hab|wol- ge-|fal- len,|
 C8 | F8 |] %44
w: A-|men.|

